src/img/social-snapchat.svg

<?xml version="1.0" encoding="utf-8"?>
<!-- Generator: Adobe Illustrator 16.0.4, SVG Export Plug-In . SVG Version: 6.00 Build 0)  -->
<!DOCTYPE svg PUBLIC "-//W3C//DTD SVG 1.1//EN" "http://www.w3.org/Graphics/SVG/1.1/DTD/svg11.dtd">
<svg version="1.1" id="Layer_1" xmlns="http://www.w3.org/2000/svg" xmlns:xlink="http://www.w3.org/1999/xlink" x="0px" y="0px"
	 width="960px" height="960px" viewBox="0 0 960 960" enable-background="new 0 0 960 960" xml:space="preserve">
<path fill="#FFF900" d="M0,0v960h960V0H0z M827.298,672.608c-3.611,9.631-20.465,22.872-86.674,33.706
	c-4.815,1.204-7.224,7.224-10.835,22.872c-1.204,4.814-2.408,10.834-3.611,15.649s-4.814,7.223-9.63,7.223h-1.204
	c-3.611,0-8.426-1.204-14.446-2.407c-10.833-2.409-24.075-3.611-39.725-3.611c-9.63,0-19.261,1.204-28.891,2.408
	c-19.261,3.61-36.114,15.649-54.171,27.687c-24.077,18.058-56.579,28.891-97.509,28.891c-1.204,0-3.611,0-4.815,0
	c-1.204,0-2.408,0-3.611,0c-40.93,0-62.597-12.038-87.877-30.095c-18.057-12.039-34.911-24.076-54.171-27.687
	c-10.834-1.204-20.465-2.408-30.095-2.408c-16.854,0-30.095,2.408-39.725,4.815c-6.02,1.203-10.835,2.407-14.446,2.407
	s-8.426-1.204-10.834-7.223c-1.204-6.02-2.408-10.835-3.611-15.649c-2.408-13.242-4.815-21.669-10.834-22.872
	c-66.211-9.631-84.268-24.075-89.083-33.706c0-2.408,0-3.611,0-4.815c0-3.61,2.408-7.224,6.02-7.224
	c101.12-16.854,146.864-120.38,148.067-123.99c6.02-12.039,7.223-22.872,3.611-32.503c-7.224-16.854-30.095-24.076-44.541-28.891
	c-3.611-1.204-7.223-2.408-9.63-3.611c-30.095-12.039-32.502-24.076-31.299-30.095c2.408-10.834,15.649-18.057,27.687-18.057
	c3.611,0,6.02,0,8.426,1.204c13.241,6.019,25.28,9.63,36.114,9.63c14.445,0,20.465-6.02,21.669-7.223
	c0-7.224-1.204-14.446-1.204-21.669c-3.611-48.152-7.223-107.139,8.426-140.845c44.542-101.12,140.846-109.546,169.738-109.546
	c1.204,0,12.039,0,12.039,0h1.204c28.891,0,125.195,8.426,170.939,109.546c15.65,33.706,10.834,93.896,8.427,140.845v2.408
	c0,7.223-1.205,13.241-1.205,19.261c1.205,1.204,6.02,6.019,19.261,7.223c9.631,0,21.67-3.611,33.707-9.63
	c3.61-1.204,7.223-2.408,10.834-2.408c4.815,0,8.426,1.204,12.039,2.408c9.63,3.611,16.854,10.834,16.854,18.057
	c0,7.223-4.815,18.057-31.3,27.687c-2.407,1.205-6.019,2.408-9.63,3.611c-14.445,4.815-37.317,12.038-44.541,28.891
	c-3.611,8.427-2.407,19.261,3.611,32.502c2.408,4.815,44.541,108.342,145.66,125.195c3.611,1.204,6.02,3.611,6.02,7.224
	C828.502,668.997,828.502,670.201,827.298,672.608z"/>
</svg>

<?xml version="1.0" encoding="UTF-8"?>
<svg width="960px" height="960px" viewBox="0 0 960 960" version="1.1" xmlns="http://www.w3.org/2000/svg" xmlns:xlink="http://www.w3.org/1999/xlink">
    <!-- Generator: Sketch 41 (35326) - http://www.bohemiancoding.com/sketch -->
    <title>Artboard</title>
    <desc>Created with Sketch.</desc>
    <defs></defs>
    <g id="Page-1" stroke="none" stroke-width="1" fill="none" fill-rule="evenodd">
        <g id="Artboard">
            <polygon id="Shape" fill="#FFF900" points="0 0 0 960 960 960 960 0"></polygon>
            <path d="M827.298,672.608 C823.687,682.239 806.833,695.48 740.624,706.314 C735.809,707.518 733.4,713.538 729.789,729.186 C728.585,734 727.381,740.02 726.178,744.835 C724.975,749.65 721.364,752.058 716.548,752.058 L715.344,752.058 C711.733,752.058 706.918,750.854 700.898,749.651 C690.065,747.242 676.823,746.04 661.173,746.04 C651.543,746.04 641.912,747.244 632.282,748.448 C613.021,752.058 596.168,764.097 578.111,776.135 C554.034,794.193 521.532,805.026 480.602,805.026 L475.787,805.026 L472.176,805.026 C431.246,805.026 409.579,792.988 384.299,774.931 C366.242,762.892 349.388,750.855 330.128,747.244 C319.294,746.04 309.663,744.836 300.033,744.836 C283.179,744.836 269.938,747.244 260.308,749.651 C254.288,750.854 249.473,752.058 245.862,752.058 C242.251,752.058 237.436,750.854 235.028,744.835 C233.824,738.815 232.62,734 231.417,729.186 C229.009,715.944 226.602,707.517 220.583,706.314 C154.372,696.683 136.315,682.239 131.5,672.608 L131.5,667.793 C131.5,664.183 133.908,660.569 137.52,660.569 C238.64,643.715 284.384,540.189 285.587,536.579 C291.607,524.54 292.81,513.707 289.198,504.076 C281.974,487.222 259.103,480 244.657,475.185 C241.046,473.981 237.434,472.777 235.027,471.574 C204.932,459.535 202.525,447.498 203.728,441.479 C206.136,430.645 219.377,423.422 231.415,423.422 C235.026,423.422 237.435,423.422 239.841,424.626 C253.082,430.645 265.121,434.256 275.955,434.256 C290.4,434.256 296.42,428.236 297.624,427.033 C297.624,419.809 296.42,412.587 296.42,405.364 C292.809,357.212 289.197,298.225 304.846,264.519 C349.388,163.399 445.692,154.973 474.584,154.973 L486.623,154.973 L487.827,154.973 C516.718,154.973 613.022,163.399 658.766,264.519 C674.416,298.225 669.6,358.415 667.193,405.364 L667.193,407.772 C667.193,414.995 665.988,421.013 665.988,427.033 C667.193,428.237 672.008,433.052 685.249,434.256 C694.88,434.256 706.919,430.645 718.956,424.626 C722.566,423.422 726.179,422.218 729.79,422.218 C734.605,422.218 738.216,423.422 741.829,424.626 C751.459,428.237 758.683,435.46 758.683,442.683 C758.683,449.906 753.868,460.74 727.383,470.37 C724.976,471.575 721.364,472.778 717.753,473.981 C703.308,478.796 680.436,486.019 673.212,502.872 C669.601,511.299 670.805,522.133 676.823,535.374 C679.231,540.189 721.364,643.716 822.483,660.569 C826.094,661.773 828.503,664.18 828.503,667.793 C828.502,668.997 828.502,670.201 827.298,672.608 Z" id="Path" fill="#FFFFFF"></path>
        </g>
    </g>
</svg>
